Icons and Attr/Egg/icon_14559.svg

<svg xmlns="http://www.w3.org/2000/svg" width="100" height="100" viewBox="0 0 100 100" fill="#fff"><path d="M86.341 51.201c-1.341-18.201-13.646-49.7-36.626-49.7-21.065 0-35.464 31.513-36.627 49.699-.187 2.913-.202 5.646-.094 8.241l8.977-17.04 9.191 17.938 9.353-18.374 9.367 18.274 9.341-18.1 9.489 18.262 9.366-18.024 8.42 16.431c.076-2.412.04-4.936-.157-7.607zm-55.167-7.541c-1.611 0-2.917-1.306-2.917-2.917 0-1.61 1.306-2.917 2.917-2.917 1.611 0 2.917 1.307 2.917 2.917 0 1.611-1.306 2.917-2.917 2.917zm18.666 0c-1.611 0-2.917-1.306-2.917-2.917 0-1.61 1.306-2.917 2.917-2.917s2.917 1.307 2.917 2.917c.001 1.611-1.306 2.917-2.917 2.917zm18.826 0c-1.61 0-2.916-1.306-2.916-2.917 0-1.61 1.306-2.917 2.916-2.917 1.611 0 2.918 1.307 2.918 2.917 0 1.611-1.307 2.917-2.918 2.917zM68.712 69.348l-9.478-18.238-9.366 18.15-9.34-18.226-9.354 18.375-9.256-18.062-8.188 15.542c3.964 24.111 21.745 31.89 35.985 31.89 13.895 0 32.139-8.555 36.062-32.331l-7.727-15.076-9.338 17.976zm-46.712 3.902c-1.61 0-2.916-1.305-2.916-2.916s1.306-2.918 2.916-2.918c1.611 0 2.918 1.307 2.918 2.918s-1.307 2.916-2.918 2.916zm18.5 0c-1.61 0-2.916-1.305-2.916-2.916s1.306-2.918 2.916-2.918c1.611 0 2.918 1.307 2.918 2.918s-1.307 2.916-2.918 2.916zm18.833 0c-1.61 0-2.916-1.305-2.916-2.916s1.306-2.918 2.916-2.918c1.611 0 2.918 1.307 2.918 2.918s-1.307 2.916-2.918 2.916zm21.584-2.916c0 1.611-1.307 2.916-2.918 2.916-1.61 0-2.916-1.305-2.916-2.916s1.306-2.918 2.916-2.918c1.611 0 2.918 1.307 2.918 2.918z"/></svg>

<svg xmlns="http://www.w3.org/2000/svg" xmlns:xlink="http://www.w3.org/1999/xlink" version="1.1" id="Layer_1" x="0px" y="0px" width="100px" height="100px" viewBox="0 0 100 100" enable-background="new 0 0 100 100" xml:space="preserve" fill="#FFFFFF"> <g> <path d="M86.341,51.201C85,33,72.695,1.501,49.715,1.501c-21.065,0-35.464,31.513-36.627,49.699   c-0.187,2.913-0.202,5.646-0.094,8.241l8.977-17.04l9.191,17.938l9.353-18.374l9.367,18.274l9.341-18.1l9.489,18.262l9.366-18.024   l8.42,16.431C86.574,56.396,86.538,53.872,86.341,51.201z M31.174,43.66c-1.611,0-2.917-1.306-2.917-2.917   c0-1.61,1.306-2.917,2.917-2.917c1.611,0,2.917,1.307,2.917,2.917C34.091,42.354,32.785,43.66,31.174,43.66z M49.84,43.66   c-1.611,0-2.917-1.306-2.917-2.917c0-1.61,1.306-2.917,2.917-2.917s2.917,1.307,2.917,2.917   C52.758,42.354,51.451,43.66,49.84,43.66z M68.666,43.66c-1.61,0-2.916-1.306-2.916-2.917c0-1.61,1.306-2.917,2.916-2.917   c1.611,0,2.918,1.307,2.918,2.917C71.584,42.354,70.277,43.66,68.666,43.66z"/> <path d="M68.712,69.348l-9.478-18.238l-9.366,18.15l-9.34-18.226l-9.354,18.375l-9.256-18.062L13.73,66.889   C17.694,91,35.475,98.779,49.715,98.779c13.895,0,32.139-8.555,36.062-32.331l-7.727-15.076L68.712,69.348z M22,73.25   c-1.61,0-2.916-1.305-2.916-2.916s1.306-2.918,2.916-2.918c1.611,0,2.918,1.307,2.918,2.918S23.611,73.25,22,73.25z M40.5,73.25   c-1.61,0-2.916-1.305-2.916-2.916s1.306-2.918,2.916-2.918c1.611,0,2.918,1.307,2.918,2.918S42.111,73.25,40.5,73.25z    M59.333,73.25c-1.61,0-2.916-1.305-2.916-2.916s1.306-2.918,2.916-2.918c1.611,0,2.918,1.307,2.918,2.918   S60.944,73.25,59.333,73.25z M80.917,70.334c0,1.611-1.307,2.916-2.918,2.916c-1.61,0-2.916-1.305-2.916-2.916   s1.306-2.918,2.916-2.918C79.61,67.416,80.917,68.723,80.917,70.334z"/> </g> </svg>
